svg/iD-sprite/presets/restriction-no-straight-on.svg

<?xml version="1.0" encoding="UTF-8"?>
<!DOCTYPE svg PUBLIC "-//W3C//DTD SVG 1.1//EN" "http://www.w3.org/Graphics/SVG/1.1/DTD/svg11.dtd">
<svg version="1.1" xmlns="http://www.w3.org/2000/svg" xmlns:xlink="http://www.w3.org/1999/xlink" x="0" y="0" width="60" height="60" viewBox="0 0 60 60">
  <path d="M30,15 L21,25 L28.531,25 L33,29.469 L33,25 L39,25 L30,15 z M27,30.5 L27,40.594 C27.953,40.863 28.96,41 30,41 C31.051,41 32.047,40.832 33,40.531 L33,36.5 L27,30.5 z" fill="#989898"/>
  <path d="M28.469,15.063 C20.901,15.83 15,22.228 15,30 C15,38.29 21.71,45 30,45 C38.29,45 45,38.29 45,30 C45,22.186 39.034,15.773 31.406,15.063 L35.094,19.156 C39.163,21.078 42,25.206 42,30 C42,32.561 41.178,34.928 39.812,36.875 L39.469,37.344 L39.062,36.938 L28.125,26 L27,26 L23.906,26 L36.938,39.031 L37.375,39.469 L36.875,39.812 C34.928,41.178 32.561,42 30,42 C23.379,42 18,36.621 18,30 C18,27.439 18.822,25.041 20.188,23.094 L20.531,22.625 L20.938,23.031 L21.188,23.281 L23.188,21.062 L23.062,20.938 L22.625,20.5 L23.125,20.156 C23.688,19.762 24.279,19.418 24.906,19.125 L28.594,15.063 C28.553,15.066 28.51,15.058 28.469,15.063 z" fill="#E06D5F"/>
</svg>

<?xml version="1.0" encoding="utf-8"?>
<!-- Generator: Adobe Illustrator 23.0.4, SVG Export Plug-In . SVG Version: 6.00 Build 0)  -->
<svg version="1.1" id="Layer_1" xmlns="http://www.w3.org/2000/svg" xmlns:xlink="http://www.w3.org/1999/xlink" x="0px" y="0px"
	 viewBox="0 0 60 60" style="enable-background:new 0 0 60 60;" xml:space="preserve">
<style type="text/css">
	.st0{fill:#FFFFFF;}
</style>
<path class="st0" d="M30,15l-9,10h7.5l4.5,4.5V25h6L30,15z M27,30.5v10.1c1,0.3,2,0.4,3,0.4c1.1,0,2-0.2,3-0.5v-4L27,30.5z"/>
<path class="st0" d="M28.5,15.1C20.9,15.8,15,22.2,15,30c0,8.3,6.7,15,15,15s15-6.7,15-15c0-7.8-6-14.2-13.6-14.9l3.7,4.1
	c4.1,1.9,6.9,6,6.9,10.8c0,2.6-0.8,4.9-2.2,6.9l-0.3,0.5l-0.4-0.4L28.1,26H27h-3.1l13,13l0.4,0.4l-0.5,0.3C34.9,41.2,32.6,42,30,42
	c-6.6,0-12-5.4-12-12c0-2.6,0.8-5,2.2-6.9l0.3-0.5l0.4,0.4l0.2,0.2l2-2.2l-0.1-0.1l-0.4-0.4l0.5-0.3c0.6-0.4,1.2-0.7,1.8-1l3.7-4.1
	C28.6,15.1,28.5,15.1,28.5,15.1z"/>
</svg>
